Obsidian-SemiLight/actions/24s/im-user-offline.svg

<svg viewBox="0 0 24 24" xmlns="http://www.w3.org/2000/svg"><path d="m12 4a3.9999902 4.0000296 0 0 0 -4 4 3.9999902 4.0000296 0 0 0 4 4 3.9999902 4.0000296 0 0 0 4-4 3.9999902 4.0000296 0 0 0 -4-4zm0 1a3 3.0000296 0 0 1 3 3 3 3.0000296 0 0 1 -3 3 3 3.0000296 0 0 1 -3-3 3 3.0000296 0 0 1 3-3zm0 8a7.9999504 8.0000296 0 0 0 -7.9277344 7h1.0078125a6.9999604 7.0000296 0 0 1 6.9199219-6 6.9999604 7.0000296 0 0 1 1 .080078v-1.009766a7.9999504 8.0000296 0 0 0 -1-.070312zm4.5 0c-1.932997 0-3.5 1.567003-3.5 3.5s1.567003 3.5 3.5 3.5 3.5-1.567003 3.5-3.5-1.567003-3.5-3.5-3.5zm-2.5 3h5v1h-5z" fill="#4d4d4d" fill-opacity=".5"/><path d="m14 16v1h5v-1z" fill="#fff"/></svg>

<svg xmlns="http://www.w3.org/2000/svg" viewBox="0 0 24 24">
  <defs id="defs3051">
    <style type="text/css" id="current-color-scheme">
      .ColorScheme-Text {
        color:#4d4d4d;
      }
      </style>
  </defs>
 <path 
     style="fill:currentColor;fill-opacity:0.5;stroke:none" 
     d="M 12 4 A 3.9999902 4.0000296 0 0 0 8 8 A 3.9999902 4.0000296 0 0 0 12 12 A 3.9999902 4.0000296 0 0 0 16 8 A 3.9999902 4.0000296 0 0 0 12 4 z M 12 5 A 3 3.0000296 0 0 1 15 8 A 3 3.0000296 0 0 1 12 11 A 3 3.0000296 0 0 1 9 8 A 3 3.0000296 0 0 1 12 5 z M 12 13 A 7.9999504 8.0000296 0 0 0 4.0722656 20 L 5.0800781 20 A 6.9999604 7.0000296 0 0 1 12 14 A 6.9999604 7.0000296 0 0 1 13 14.080078 L 13 13.070312 A 7.9999504 8.0000296 0 0 0 12 13 z M 16.5 13 C 14.567003 13 13 14.567003 13 16.5 C 13 18.432997 14.567003 20 16.5 20 C 18.432997 20 20 18.432997 20 16.5 C 20 14.567003 18.432997 13 16.5 13 z M 14 16 L 19 16 L 19 17 L 14 17 L 14 16 z "
     class="ColorScheme-Text"
     />
  <path
     style="fill:#ffffff;fill-opacity:1;stroke:none"
     d="M 14 16 L 14 17 L 19 17 L 19 16 L 14 16 z "
     id="path10" />
</svg>
